X: 319
T: The 28th Of January
B: canberra pickers and fiddlers
B: tunes
M:4/4
L:1/8
R: reel
Q: 1/4=100
K:Adorian
V:1 
"Am"A,A,CE "D"DDFD|"Am"A,A,CE "D"D2EG|"Am"ABcB "G"AGEG|"F"ABcB "Em"AGED|
"Am"A,A,CE "D"DDFD|"Am"A,A,CE "D"D2EG|"Am"Acea "G"(3gfe BA|"Em"EGA2"Am"A4:|
|:"Am"ea2 (a a)bag|egab a3 (g|"G"g)fga bagf|efga bagf|
"Am"e2 a2abag|egaba2ag|"G"degf edBG|"Em"EGA2"Am"A4:|
% abcbook-tune_id 63da59340c32d4e6acde44d7
% abcbook-tune_composer_id 
% abcbook-link-0 https://www.youtube.com/watch?v=aiBLtBNJNpE
% abcbook-link-1 https://www.youtube.com/watch?v=7aVj9DsM46U
% abcbook-boost 0
% abcbook-difficulty 0
% abcbook-tags bega session,canberra pickers and fiddlers,old time tunes,© free
% abcbook-tablature 
% abcbook-transpose 
% abcbook-tuning GDAE
% abcbook-lastupdated 1722908551152
% abcbook-src-url https://tunebook.net/scrape/tunes.abc
% abcbook-soundfonts 
% abcbook-repeats 1
%%gchordfont "itim-music,Itim" 20

